; generated by PrusaSlicer 2.9.0 on 2025-02-10 at 18:03:14 UTC


;
;

;
;
; 

; external perimeters extrusion width = 0.45mm
; perimeters extrusion width = 0.45mm
; infill extrusion width = 0.45mm
; solid infill extrusion width = 0.45mm
; top infill extrusion width = 0.40mm
; first layer extrusion width = 0.42mm

;TYPE:Custom
M413 S0 ; disable Power Loss Recovery
G90 ; use absolute coordinates
M83 ; extruder relative mode
M104 S120 ; set temporary nozzle temp to prevent oozing during homing and auto bed leveling
M140 S100 ; set final bed temp
G4 S10 ; allow partial nozzle warmup
G28 ; home all axis
;G29 ; run abl mesh
M420 S1 ; load mesh
G1 Z50 F240
G1 X2 Y10 F3000
M104 S250 ; set final nozzle temp
M190 S100 ; wait for bed temp to stabilize
M109 S250 ; wait for nozzle temp to stabilize
G1 Z0.28 F240
G92 E0
G1 Y140 E10 F1500 ; prime the nozzle
G1 X2.3 F5000
G92 E0
G1 Y10 E10 F1200 ; prime the nozzle
G92 E0
G21 ; set units to millimeters
G90 ; use absolute coordinates
M82 ; use absolute distances for extrusion
G92 E0 ; reset extrusion distance
; Filament gcode
M900 K0; Set K-Factor PLA
M107 ; disable fan
;LAYER_CHANGE
;Z:0.2
;HEIGHT:0.2
G1 E-2.5 F1500 ; retract
G92 E0 ; reset extrusion distance
G1 Z.2 F9000 ; lift
G1 X100.353 Y106.163 ; move to first layer point
G1 E2.5 F2400 ;  ; unretract
;TYPE:Skirt/Brim
;WIDTH:0.42
G1 F1200
G1 X101.41 Y105.217 E2.54448 ; skirt
G1 X102.527 Y104.961 E2.58041 ; skirt
G1 X122.473 Y104.961 E3.2058 ; skirt
G1 X123.837 Y105.353 E3.2503 ; skirt
G1 X124.783 Y106.41 E3.29478 ; skirt
G1 X125.039 Y107.527 E3.33071 ; skirt
G1 X125.039 Y117.473 E3.64256 ; skirt
G1 X124.647 Y118.837 E3.68706 ; skirt
G1 X123.59 Y119.783 E3.73154 ; skirt
G1 X122.473 Y120.039 E3.76747 ; skirt
G1 X102.527 Y120.039 E4.39286 ; skirt
G1 X101.163 Y119.647 E4.43736 ; skirt
G1 X100.217 Y118.59 E4.48184 ; skirt
G1 X99.961 Y117.473 E4.51777 ; skirt
G1 X99.961 Y107.527 E4.82962 ; skirt
G1 X100.337 Y106.221 E4.87223 ; skirt
G1 X100.337 Y106.221 F9000 ; move to first skirt point
G1 X100.71 Y106.338 ; move to first skirt point
G1 F1200
G1 X100.729 Y106.279 E4.87417 ; skirt
G1 X101.762 Y105.476 E4.91519 ; skirt
G1 X102.527 Y105.338 E4.93956 ; skirt
G1 X122.473 Y105.338 E5.56495 ; skirt
G1 X123.721 Y105.729 E5.60596 ; skirt
G1 X124.524 Y106.762 E5.64698 ; skirt
G1 X124.662 Y107.527 E5.67135 ; skirt
G1 X124.662 Y117.473 E5.9832 ; skirt
G1 X124.271 Y118.721 E6.02421 ; skirt
G1 X123.238 Y119.524 E6.06523 ; skirt
G1 X122.473 Y119.662 E6.0896 ; skirt
G1 X102.527 Y119.662 E6.71499 ; skirt
G1 X101.279 Y119.271 E6.756 ; skirt
G1 X100.476 Y118.238 E6.79702 ; skirt
G1 X100.338 Y117.473 E6.82139 ; skirt
G1 X100.338 Y107.527 E7.13324 ; skirt
G1 X100.693 Y106.395 E7.17044 ; skirt
G1 E5.42044 F1500 ; retract
;WIPE_START
G1 F7200
G1 X100.71 Y106.338 E5.40867 ; wipe and retract
G1 X100.729 Y106.279 E5.3964 ; wipe and retract
G1 X101.762 Y105.476 E5.13745 ; wipe and retract
G1 X102.527 Y105.338 E4.9836 ; wipe and retract
G1 X104.109 Y105.338 E4.67044 ; wipe and retract
;WIPE_END
G92 E0 ; reset extrusion distance
G92 E0 ; reset extrusion distance
G1 X104.345 Y109.345 F9000 ; move to first perimeter point
G1 E2.5 F2400 ;  ; unretract
;TYPE:Perimeter
;WIDTH:0.419999
G1 F1200
G1 X120.655 Y109.345 E3.01139 ; perimeter
G1 X120.655 Y112.5 E3.11031 ; perimeter
G1 X120.655 Y115.655 E3.20923 ; perimeter
G1 X104.345 Y115.655 E3.72062 ; perimeter
G1 X104.345 Y109.405 E3.91658 ; perimeter
G1 X104.345 Y109.405 F9000 ; move to first perimeter point
G1 X103.968 Y108.968 ; move to first perimeter point
G1 F1200
G1 X121.032 Y108.968 E4.45161 ; perimeter
G1 X121.032 Y112.5 E4.56235 ; perimeter
G1 X121.032 Y116.032 E4.67309 ; perimeter
G1 X103.968 Y116.032 E5.20812 ; perimeter
G1 X103.968 Y109.028 E5.42773 ; perimeter
G1 X103.591 Y108.591 F9000 ; move to first perimeter point
G1 F1200
G1 X121.409 Y108.591 E5.9864 ; perimeter
G1 X121.409 Y112.5 E6.10896 ; perimeter
G1 X121.409 Y116.409 E6.23152 ; perimeter
G1 X103.591 Y116.409 E6.79019 ; perimeter
G1 X103.591 Y108.651 E7.03344 ; perimeter
G1 X103.214 Y108.214 F9000 ; move to first perimeter point
G1 F1200
G1 X121.786 Y108.214 E7.61575 ; perimeter
G1 X121.786 Y112.5 E7.75013 ; perimeter
G1 X121.786 Y116.786 E7.88451 ; perimeter
G1 X103.214 Y116.786 E8.46682 ; perimeter
G1 X103.214 Y108.274 E8.73371 ; perimeter
G1 X103.214 Y108.274 F9000 ; move to first perimeter point
G1 X102.837 Y107.837 ; move to first perimeter point
;TYPE:External perimeter
G1 F1200
G1 X122.163 Y107.837 E9.33966 ; perimeter
G1 X122.163 Y112.5 E9.48586 ; perimeter
G1 X122.163 Y117.163 E9.63206 ; perimeter
G1 X102.837 Y117.163 E10.23801 ; perimeter
G1 X102.837 Y107.897 E10.52854 ; perimeter
G1 E8.77854 F1500 ; retract
;WIPE_START
G1 F7200
G1 X102.837 Y107.837 E8.76666 ; wipe and retract
G1 X106.566 Y107.837 E8.02854 ; wipe and retract
;WIPE_END
G92 E0 ; reset extrusion distance
G1 X119.766 Y109.458 F9000 ; move to first infill point
G1 E2.5 F2400 ;  ; unretract
;TYPE:Solid infill
;WIDTH:0.426525
G1 F1200
G1 X120.372 Y110.065 E2.52736 ; infill
G1 X120.372 Y110.607 E2.54465 ; infill
G1 X119.393 Y109.628 E2.58881 ; infill
G1 X118.85 Y109.628 E2.60613 ; infill
G1 X120.372 Y111.15 E2.67479 ; infill
G1 X120.372 Y111.692 E2.69208 ; infill
G1 X118.308 Y109.628 E2.78518 ; infill
G1 X117.765 Y109.628 E2.8025 ; infill
G1 X120.372 Y112.235 E2.9201 ; infill
G1 X120.372 Y112.777 E2.93739 ; infill
G1 X117.223 Y109.628 E3.07944 ; infill
G1 X116.68 Y109.628 E3.09676 ; infill
G1 X120.372 Y113.32 E3.2633 ; infill
G1 X120.372 Y113.862 E3.28059 ; infill
G1 X116.138 Y109.628 E3.47158 ; infill
G1 X115.595 Y109.628 E3.4889 ; infill
G1 X120.372 Y114.405 E3.70439 ; infill
G1 X120.372 Y114.947 E3.72168 ; infill
G1 X115.053 Y109.628 E3.96161 ; infill
G1 X114.51 Y109.628 E3.97893 ; infill
G1 X120.255 Y115.372 E4.23806 ; infill
G1 X119.712 Y115.372 E4.25538 ; infill
G1 X113.968 Y109.628 E4.51449 ; infill
G1 X113.425 Y109.628 E4.53181 ; infill
G1 X119.17 Y115.372 E4.79094 ; infill
G1 X118.627 Y115.372 E4.80826 ; infill
G1 X112.883 Y109.628 E5.06737 ; infill
G1 X112.34 Y109.628 E5.08469 ; infill
G1 X118.085 Y115.372 E5.34382 ; infill
G1 X117.542 Y115.372 E5.36114 ; infill
G1 X111.798 Y109.628 E5.62025 ; infill
G1 X111.255 Y109.628 E5.63757 ; infill
G1 X117 Y115.372 E5.8967 ; infill
G1 X116.457 Y115.372 E5.91402 ; infill
G1 X110.713 Y109.628 E6.17313 ; infill
G1 X110.17 Y109.628 E6.19045 ; infill
G1 X115.915 Y115.372 E6.44958 ; infill
G1 X115.372 Y115.372 E6.4669 ; infill
G1 X109.628 Y109.628 E6.72601 ; infill
G1 X109.085 Y109.628 E6.74333 ; infill
G1 X114.83 Y115.372 E7.00246 ; infill
G1 X114.287 Y115.372 E7.01978 ; infill
G1 X108.543 Y109.628 E7.27889 ; infill
G1 X108 Y109.628 E7.29621 ; infill
G1 X113.745 Y115.372 E7.55534 ; infill
G1 X113.202 Y115.372 E7.57266 ; infill
G1 X107.458 Y109.628 E7.83177 ; infill
G1 X106.915 Y109.628 E7.84909 ; infill
G1 X112.66 Y115.372 E8.10822 ; infill
G1 X112.117 Y115.372 E8.12554 ; infill
G1 X106.373 Y109.628 E8.38465 ; infill
G1 X105.83 Y109.628 E8.40197 ; infill
G1 X111.575 Y115.372 E8.6611 ; infill
G1 X111.032 Y115.372 E8.67842 ; infill
G1 X105.288 Y109.628 E8.93753 ; infill
G1 X104.745 Y109.628 E8.95485 ; infill
G1 X110.49 Y115.372 E9.21398 ; infill
G1 X109.947 Y115.372 E9.2313 ; infill
G1 X104.628 Y110.053 E9.47123 ; infill
G1 X104.628 Y110.595 E9.48852 ; infill
G1 X109.405 Y115.372 E9.70401 ; infill
G1 X108.862 Y115.372 E9.72133 ; infill
G1 X104.628 Y111.138 E9.91232 ; infill
G1 X104.628 Y111.68 E9.92961 ; infill
G1 X108.32 Y115.372 E10.09615 ; infill
G1 X107.777 Y115.372 E10.11347 ; infill
G1 X104.628 Y112.223 E10.25552 ; infill
G1 X104.628 Y112.765 E10.27281 ; infill
G1 X107.235 Y115.372 E10.39041 ; infill
G1 X106.692 Y115.372 E10.40773 ; infill
G1 X104.628 Y113.308 E10.50083 ; infill
G1 X104.628 Y113.85 E10.51812 ; infill
G1 X106.15 Y115.372 E10.58678 ; infill
G1 X105.607 Y115.372 E10.6041 ; infill
G1 X104.628 Y114.393 E10.64826 ; infill
G1 X104.628 Y114.935 E10.66555 ; infill
G1 X105.234 Y115.542 E10.69291 ; infill
;LAYER_CHANGE
;Z:0.4
;HEIGHT:0.2
;BEFORE_LAYER_CHANGE
;G92 E0
;0.4


G1 E8.94291 F1500 ; retract
;WIPE_START
G1 F7200
G1 X104.628 Y114.935 E8.77315 ; wipe and retract
G1 X104.628 Y114.393 E8.66588 ; wipe and retract
G1 X105.607 Y115.372 E8.39186 ; wipe and retract
G1 X106.15 Y115.372 E8.28439 ; wipe and retract
G1 X105.823 Y115.045 E8.19291 ; wipe and retract
;WIPE_END
G92 E0 ; reset extrusion distance
G1 Z.4 F9000 ; simple layer change
;AFTER_LAYER_CHANGE
;0.4
G1 X105.234 Y120.039 ; travel to first layer point
G1 E2.5 F2400 ;  ; unretract
;TYPE:Skirt/Brim
;WIDTH:0.42
G1 X102.527 Y120.039 E2.58488 ; skirt
G1 X101.163 Y119.647 E2.62938 ; skirt
G1 X100.217 Y118.59 E2.67386 ; skirt
G1 X99.961 Y117.473 E2.70979 ; skirt
G1 X99.961 Y107.527 E3.02164 ; skirt
G1 X100.353 Y106.163 E3.06614 ; skirt
G1 X101.41 Y105.217 E3.11062 ; skirt
G1 X102.527 Y104.961 E3.14655 ; skirt
G1 X122.473 Y104.961 E3.77194 ; skirt
G1 X123.837 Y105.353 E3.81644 ; skirt
G1 X124.783 Y106.41 E3.86092 ; skirt
G1 X125.039 Y107.527 E3.89685 ; skirt
G1 X125.039 Y117.473 E4.2087 ; skirt
G1 X124.647 Y118.837 E4.2532 ; skirt
G1 X123.59 Y119.783 E4.29768 ; skirt
G1 X122.473 Y120.039 E4.33361 ; skirt
G1 X105.294 Y120.039 E4.87225 ; skirt
G1 X105.294 Y120.039 F9000 ; move to first skirt point
G1 X105.294 Y119.662 ; move to first skirt point
G1 F2400
G1 X102.527 Y119.662 E4.95901 ; skirt
G1 X101.279 Y119.271 E5.00002 ; skirt
G1 X100.476 Y118.238 E5.04104 ; skirt
G1 X100.338 Y117.473 E5.06541 ; skirt
G1 X100.338 Y107.527 E5.37726 ; skirt
G1 X100.729 Y106.279 E5.41827 ; skirt
G1 X101.762 Y105.476 E5.45929 ; skirt
G1 X102.527 Y105.338 E5.48366 ; skirt
G1 X122.473 Y105.338 E6.10905 ; skirt
G1 X123.721 Y105.729 E6.15006 ; skirt
G1 X124.524 Y106.762 E6.19108 ; skirt
G1 X124.662 Y107.527 E6.21545 ; skirt
G1 X124.662 Y117.473 E6.5273 ; skirt
G1 X124.271 Y118.721 E6.56831 ; skirt
G1 X123.238 Y119.524 E6.60933 ; skirt
G1 X122.473 Y119.662 E6.6337 ; skirt
G1 X105.354 Y119.662 E7.17045 ; skirt
G1 E5.42045 F1500 ; retract
;WIPE_START
G1 F7200
G1 X105.294 Y119.662 E5.40857 ; wipe and retract
G1 X102.527 Y119.662 E4.86093 ; wipe and retract
G1 X101.608 Y119.374 E4.67045 ; wipe and retract
;WIPE_END
G92 E0 ; reset extrusion distance
G92 E0 ; reset extrusion distance
G1 X104.434 Y109.434 F9000 ; move to first perimeter point
G1 E2.5 F2400 ;  ; unretract
;TYPE:Perimeter
;WIDTH:0.449999
G1 X120.566 Y109.434 E3.04605 ; perimeter
G1 X120.566 Y112.5 E3.14983 ; perimeter
G1 X120.566 Y115.566 E3.25361 ; perimeter
G1 X104.434 Y115.566 E3.79966 ; perimeter
G1 X104.434 Y109.494 E4.00519 ; perimeter
G1 X104.434 Y109.494 F9000 ; move to first perimeter point
G1 X104.027 Y109.027 ; move to first perimeter point
G1 F2400
G1 X120.973 Y109.027 E4.57879 ; perimeter
G1 X120.973 Y112.5 E4.69635 ; perimeter
G1 X120.973 Y115.973 E4.81391 ; perimeter
G1 X104.027 Y115.973 E5.38751 ; perimeter
G1 X104.027 Y109.087 E5.62059 ; perimeter
G1 X104.027 Y109.087 F9000 ; move to first perimeter point
G1 X103.62 Y108.62 ; move to first perimeter point
G1 F2400
G1 X121.38 Y108.62 E6.22174 ; perimeter
G1 X121.38 Y112.5 E6.35307 ; perimeter
G1 X121.38 Y116.38 E6.4844 ; perimeter
G1 X103.62 Y116.38 E7.08555 ; perimeter
G1 X103.62 Y108.68 E7.34619 ; perimeter
G1 X103.62 Y108.68 F9000 ; move to first perimeter point
G1 X103.212 Y108.212 ; move to first perimeter point
G1 F2400
G1 X121.788 Y108.212 E7.97496 ; perimeter
G1 X121.788 Y112.5 E8.1201 ; perimeter
G1 X121.788 Y116.788 E8.26524 ; perimeter
G1 X103.212 Y116.788 E8.89401 ; perimeter
G1 X103.212 Y108.272 E9.18227 ; perimeter
G1 X103.212 Y108.272 F9000 ; move to first perimeter point
G1 X102.805 Y107.805 ; move to first perimeter point
;TYPE:External perimeter
G1 F1500
G1 X122.195 Y107.805 E9.8386 ; perimeter
G1 X122.195 Y112.5 E9.99752 ; perimeter
G1 X122.195 Y117.195 E10.15644 ; perimeter
G1 X102.805 Y117.195 E10.81277 ; perimeter
G1 X102.805 Y107.865 E11.12858 ; perimeter
G1 E9.37858 ; retract
;WIPE_START
G1 F7200
G1 X102.805 Y107.805 E9.3667 ; wipe and retract
G1 X106.534 Y107.805 E8.62858 ; wipe and retract
;WIPE_END
G92 E0 ; reset extrusion distance
G1 X104.849 Y109.772 F9000 ; move to first infill point
G1 E2.5 F2400 ;  ; unretract
;TYPE:Solid infill
;WIDTH:0.548766
G1 X104.805 Y109.727 E2.50265 ; infill
G1 X104.744 Y109.744 E2.50531 ; infill
G1 X104.727 Y109.805 E2.50797 ; infill
G1 X104.772 Y109.849 E2.51062 ; infill
G1 X104.833 Y109.833 E2.51327 ; infill
;WIDTH:0.449999
G1 X104.739 Y110.483 E2.5355 ; infill
G1 X105.483 Y109.739 E2.57111 ; infill
G1 X106.059 Y109.739 E2.59061 ; infill
G1 X104.739 Y111.059 E2.6538 ; infill
G1 X104.739 Y111.635 E2.6733 ; infill
G1 X106.635 Y109.739 E2.76406 ; infill
G1 X107.21 Y109.739 E2.78352 ; infill
G1 X104.739 Y112.21 E2.90181 ; infill
G1 X104.739 Y112.786 E2.92131 ; infill
G1 X107.786 Y109.739 E3.06717 ; infill
G1 X108.362 Y109.739 E3.08667 ; infill
G1 X104.739 Y113.362 E3.2601 ; infill
G1 X104.739 Y113.938 E3.2796 ; infill
G1 X108.938 Y109.739 E3.4806 ; infill
G1 X109.513 Y109.739 E3.50006 ; infill
G1 X104.739 Y114.513 E3.72859 ; infill
G1 X104.739 Y114.513 F9000 ; move to first infill point
G1 X104.668 Y115.392 ; move to first infill point
;WIDTH:0.38292
G1 F2400
G1 X104.627 Y115.403 E3.72979 ; infill
G1 X104.608 Y115.332 E3.73187 ; infill
G1 X104.679 Y115.351 E3.73395 ; infill
;WIDTH:0.41646
G1 X104.709 Y115.22 E3.73812 ; infill
;WIDTH:0.449999
G1 X104.739 Y115.089 E3.74267 ; infill
G1 X110.089 Y109.739 E3.99877 ; infill
G1 X110.665 Y109.739 E4.01827 ; infill
G1 X105.143 Y115.261 E4.2826 ; infill
G1 X105.718 Y115.261 E4.30206 ; infill
G1 X111.24 Y109.739 E4.56639 ; infill
G1 X111.816 Y109.739 E4.58589 ; infill
G1 X106.294 Y115.261 E4.85022 ; infill
G1 X106.87 Y115.261 E4.86972 ; infill
G1 X112.392 Y109.739 E5.13405 ; infill
G1 X112.967 Y109.739 E5.15351 ; infill
G1 X107.445 Y115.261 E5.41784 ; infill
G1 X108.021 Y115.261 E5.43734 ; infill
G1 X113.543 Y109.739 E5.70167 ; infill
G1 X114.119 Y109.739 E5.72117 ; infill
G1 X108.597 Y115.261 E5.9855 ; infill
G1 X109.172 Y115.261 E6.00496 ; infill
G1 X114.694 Y109.739 E6.26929 ; infill
G1 X115.27 Y109.739 E6.28879 ; infill
G1 X109.748 Y115.261 E6.55312 ; infill
G1 X110.324 Y115.261 E6.57262 ; infill
G1 X115.846 Y109.739 E6.83695 ; infill
G1 X116.422 Y109.739 E6.85645 ; infill
G1 X110.9 Y115.261 E7.12078 ; infill
G1 X111.475 Y115.261 E7.14024 ; infill
G1 X116.997 Y109.739 E7.40457 ; infill
G1 X117.573 Y109.739 E7.42407 ; infill
G1 X112.051 Y115.261 E7.6884 ; infill
G1 X112.627 Y115.261 E7.7079 ; infill
G1 X118.149 Y109.739 E7.97223 ; infill
G1 X118.724 Y109.739 E7.99169 ; infill
G1 X113.202 Y115.261 E8.25602 ; infill
G1 X113.778 Y115.261 E8.27552 ; infill
G1 X119.3 Y109.739 E8.53985 ; infill
G1 X119.876 Y109.739 E8.55935 ; infill
G1 X114.354 Y115.261 E8.82368 ; infill
G1 X114.929 Y115.261 E8.84314 ; infill
G1 X120.261 Y109.929 E9.09838 ; infill
G1 X120.324 Y109.801 E9.10321 ; infill
;WIDTH:0.41646
G1 X120.387 Y109.673 E9.10764 ; infill
;WIDTH:0.38292
G1 X120.346 Y109.684 E9.10884 ; infill
G1 X120.327 Y109.613 E9.11092 ; infill
G1 X120.398 Y109.632 E9.113 ; infill
G1 X120.398 Y109.632 F9000 ; move to first infill point
G1 X120.261 Y110.505 ; move to first infill point
;WIDTH:0.449999
G1 F2400
G1 X115.505 Y115.261 E9.34067 ; infill
G1 X116.081 Y115.261 E9.36017 ; infill
G1 X120.261 Y111.081 E9.56026 ; infill
G1 X120.261 Y111.657 E9.57976 ; infill
G1 X116.657 Y115.261 E9.75228 ; infill
G1 X117.232 Y115.261 E9.77174 ; infill
G1 X120.261 Y112.232 E9.91674 ; infill
G1 X120.261 Y112.808 E9.93624 ; infill
G1 X117.808 Y115.261 E10.05366 ; infill
G1 X118.384 Y115.261 E10.07316 ; infill
G1 X120.261 Y113.384 E10.16301 ; infill
G1 X120.363 Y113.321 E10.16707 ; infill
;WIDTH:0.41646
G1 X120.465 Y113.257 E10.17081 ; infill
;WIDTH:0.38292
G1 X120.424 Y113.268 E10.17201 ; infill
G1 X120.405 Y113.197 E10.17409 ; infill
G1 X120.476 Y113.216 E10.17617 ; infill
;WIDTH:0.449999
G1 X120.261 Y113.959 E10.20235 ; infill
G1 X120.261 Y115.261 E10.24642 ; infill
G1 X118.959 Y115.261 E10.29049 ; infill
G1 X120.117 Y114.103 E10.34592 ; infill
;LAYER_CHANGE
;Z:0.6
;HEIGHT:0.2
