; generated by PrusaSlicer 2.9.0 on 2025-02-15 at 16:51:34 UTC


;
;

;
;
; 

; external perimeters extrusion width = 0.45mm
; perimeters extrusion width = 0.45mm
; infill extrusion width = 0.45mm
; solid infill extrusion width = 0.45mm
; top infill extrusion width = 0.40mm
; first layer extrusion width = 0.42mm

;TYPE:Custom
M413 S0 ; disable Power Loss Recovery
G90 ; use absolute coordinates
M83 ; extruder relative mode
M104 S120 ; set temporary nozzle temp to prevent oozing during homing and auto bed leveling
M140 S50 ; set final bed temp
G4 S10 ; allow partial nozzle warmup
G28 ; home all axis
;G29 ; run abl mesh
M420 S1 ; load mesh
G1 Z50 F240
G1 X2 Y10 F3000
M104 S210 ; set final nozzle temp
M190 S50 ; wait for bed temp to stabilize
M109 S210 ; wait for nozzle temp to stabilize
G1 Z0.28 F240
G92 E0
G1 Y140 E10 F1500 ; prime the nozzle
G1 X2.3 F5000
G92 E0
G1 Y10 E10 F1200 ; prime the nozzle
G92 E0
G21 ; set units to millimeters
G90 ; use absolute coordinates
M83 ; use relative distances for extrusion
; Filament gcode
M107
;LAYER_CHANGE
;Z:0.2
;HEIGHT:0.2
G1 E-2.5 F1500
G1 Z.2 F9000
G1 X87.686 Y106.969
G1 Z.2
G1 E2.5 F2400
;TYPE:Skirt/Brim
;WIDTH:0.42
G1 F1200
G1 X88.459 Y106.342 E.02809
G1 X89.434 Y105.887 E.03036
G1 X90.444 Y105.689 E.02904
G1 X115.287 Y104.193 E.70231
G1 X117.685 Y104.389 E.06789
G1 X119.968 Y104.888 E.06594
G1 X122.123 Y105.663 E.06462
G1 X124.22 Y106.746 E.0666
G1 X126.093 Y108.048 E.06437
G1 X127.735 Y109.529 E.0624
G1 X129.265 Y111.318 E.06643
G1 X130.519 Y113.262 E.06528
G1 X130.866 Y114.297 E.0308
G1 X130.919 Y115.305 E.02848
G1 X130.711 Y116.283 E.02822
G1 X130.243 Y117.226 E.02971
G1 X129.064 Y118.945 E.05882
G1 X127.768 Y120.436 E.05575
G1 X126.245 Y121.83 E.05826
G1 X124.657 Y122.981 E.05534
G1 X122.487 Y124.174 E.06988
G1 X121.244 Y124.692 E.038
G1 X119.951 Y125.118 E.03842
G1 X117.419 Y125.65 E.07301
G1 X116.089 Y125.778 E.0377
G1 X114.758 Y125.807 E.03757
G1 X90.315 Y124.299 E.69107
G1 X89.282 Y124.061 E.02991
G1 X88.459 Y123.658 E.02586
G1 X87.745 Y123.091 E.02573
G1 X87.167 Y122.379 E.02588
G1 X86.669 Y121.304 E.03343
G1 X86.472 Y120.164 E.03265
G1 X86.482 Y109.679 E.29587
G1 X86.668 Y108.698 E.02818
G1 X87.098 Y107.731 E.02986
G1 X87.65 Y107.016 E.02549
G1 X87.65 Y107.016 F9000
G1 X87.946 Y107.245
G1 F1200
G1 X87.956 Y107.232 E.00046
G1 X88.665 Y106.658 E.02574
G1 X89.545 Y106.248 E.0274
G1 X90.478 Y106.065 E.02683
G1 X115.285 Y104.57 E.7013
G1 X117.631 Y104.762 E.06642
G1 X119.861 Y105.25 E.06442
G1 X121.971 Y106.008 E.06327
G1 X124.027 Y107.07 E.0653
G1 X125.859 Y108.343 E.06295
G1 X127.462 Y109.79 E.06094
G1 X128.964 Y111.545 E.06519
G1 X130.181 Y113.43 E.06332
G1 X130.494 Y114.363 E.02777
G1 X130.534 Y115.366 E.02833
G1 X130.293 Y116.321 E.02779
G1 X129.754 Y117.301 E.03156
G1 X128.645 Y118.869 E.0542
G1 X127.371 Y120.302 E.05411
G1 X125.977 Y121.563 E.05304
G1 X124.346 Y122.732 E.05663
G1 X122.144 Y123.915 E.07054
G1 X119.849 Y124.754 E.06895
G1 X117.371 Y125.276 E.07146
G1 X114.779 Y125.43 E.07327
G1 X90.349 Y123.923 E.6907
G1 X89.415 Y123.708 E.02705
G1 X88.665 Y123.342 E.02355
G1 X88.014 Y122.826 E.02344
G1 X87.487 Y122.179 E.02355
G1 X87.03 Y121.198 E.03054
G1 X86.849 Y120.152 E.02996
G1 X86.857 Y109.714 E.29455
G1 X87.03 Y108.804 E.02614
G1 X87.419 Y107.93 E.027
G1 X87.91 Y107.292 E.02272
G1 E-1.75 F1500
;WIPE_START
G1 F7200
G1 X87.946 Y107.245 E-.01172
G1 X87.956 Y107.232 E-.00325
G1 X88.665 Y106.658 E-.18054
G1 X89.545 Y106.248 E-.19214
G1 X90.478 Y106.065 E-.18817
G1 X91.356 Y106.012 E-.17418
;WIPE_END
G1 X115.234 Y114.225 F9000
G1 E2.5 F2400
;TYPE:External perimeter
G1 F1200
G1 X115.321 Y114.127 E.0037
G1 X115.506 Y113.656 E.01428
G1 X115.697 Y113.431 E.00833
G1 X115.892 Y113.265 E.00723
G1 X116.111 Y113.184 E.00659
G1 X116.275 Y113.174 E.00464
G1 X116.429 Y113.206 E.00444
G1 X116.574 Y113.274 E.00452
G1 X116.71 Y113.381 E.00488
G1 X116.871 Y113.603 E.00774
G1 X116.933 Y113.772 E.00508
G1 X116.949 Y113.935 E.00462
G1 X116.922 Y114.122 E.00533
G1 X116.864 Y114.282 E.0048
G1 X116.179 Y115.442 E.03802
G1 X116.114 Y115.597 E.00474
G1 X116.094 Y115.704 E.00307
G1 X116.102 Y115.795 E.00258
G1 X116.141 Y115.897 E.00308
G1 X116.82 Y117.027 E.0372
G1 X116.965 Y117.352 E.01004
G1 X117.007 Y117.629 E.00791
G1 X116.974 Y117.892 E.00748
G1 X116.862 Y118.114 E.00702
G1 X116.745 Y118.235 E.00475
G1 X116.609 Y118.321 E.00454
G1 X116.449 Y118.382 E.00483
G1 X116.197 Y118.413 E.00716
G1 X115.945 Y118.36 E.00727
G1 X115.744 Y118.237 E.00665
G1 X115.585 Y118.053 E.00686
G1 X115.385 Y117.667 E.01227
G1 X115.346 Y117.484 E.00528
G1 X115.29 Y117.38 E.00333
G1 X115.146 Y117.269 E.00513
G1 X115.109 Y117.189 E.00249
G1 X114.967 Y117.334 E.00573
G1 X114.902 Y117.463 E.00408
G1 X114.886 Y117.593 E.0037
G1 X114.668 Y117.982 E.01258
G1 X114.559 Y118.137 E.00535
G1 X114.425 Y118.257 E.00508
G1 X114.151 Y118.385 E.00853
G1 X113.893 Y118.37 E.00729
G1 X113.622 Y118.236 E.00853
G1 X113.486 Y118.12 E.00504
G1 X113.378 Y117.952 E.00564
G1 X113.361 Y117.627 E.00918
G1 X113.427 Y117.262 E.01047
G1 X113.47 Y117.148 E.00344
G1 X113.936 Y116.277 E.02788
G1 X114.239 Y115.856 E.01464
G1 X114.281 Y115.758 E.00301
G1 X114.032 Y115.367 E.01308
G1 X113.514 Y114.449 E.02974
G1 X113.431 Y114.255 E.00595
G1 X113.363 Y114 E.00745
G1 X113.376 Y113.71 E.00819
G1 X113.444 Y113.547 E.00498
G1 X113.539 Y113.422 E.00443
G1 X113.665 Y113.316 E.00465
G1 X113.82 Y113.232 E.00497
G1 X114.097 Y113.171 E.008
G1 X114.368 Y113.213 E.00774
G1 X114.527 Y113.293 E.00502
G1 X114.654 Y113.412 E.00491
G1 X114.871 Y113.697 E.01011
G1 X114.947 Y113.923 E.00673
G1 X115.049 Y114.144 E.00687
G1 X115.189 Y114.277 E.00545
G1 X115.194 Y114.27 E.00024
G1 E-1.75 F1500
;WIPE_START
G1 F7200
G1 X115.234 Y114.225 E-.01192
G1 X115.321 Y114.127 E-.02594
G1 X115.506 Y113.656 E-.10015
G1 X115.697 Y113.431 E-.05841
G1 X115.892 Y113.265 E-.05068
G1 X116.111 Y113.184 E-.04621
G1 X116.275 Y113.174 E-.03252
G1 X116.429 Y113.206 E-.03113
G1 X116.574 Y113.274 E-.0317
G1 X116.71 Y113.381 E-.03425
G1 X116.871 Y113.603 E-.05428
G1 X116.933 Y113.772 E-.03563
G1 X116.949 Y113.935 E-.03242
G1 X116.922 Y114.122 E-.03739
G1 X116.864 Y114.282 E-.03368
G1 X116.521 Y114.864 E-.13369
;WIPE_END
G1 X110.533 Y117.674 F9000
G1 E2.5 F2400
G1 F1200
G1 X110.521 Y117.545 E.00366
G1 X110.577 Y117.145 E.0114
G1 X110.633 Y116.945 E.00586
G1 X110.724 Y116.751 E.00605
G1 X110.846 Y116.58 E.00593
G1 X111.122 Y116.293 E.01124
G1 X111.235 Y116.213 E.00391
G1 X111.449 Y116.125 E.00653
G1 X111.744 Y116.064 E.0085
G1 X112.02 Y116.082 E.0078
G1 X112.247 Y116.146 E.00666
G1 X112.457 Y116.252 E.00664
G1 X112.641 Y116.391 E.00651
G1 X112.8 Y116.567 E.00669
G1 X112.915 Y116.769 E.00656
G1 X112.998 Y116.987 E.00658
G1 X113.025 Y117.226 E.00679
G1 X112.947 Y117.828 E.01713
G1 X112.857 Y118.052 E.00681
G1 X112.72 Y118.241 E.00659
G1 X112.555 Y118.406 E.00658
G1 X112.351 Y118.535 E.00681
G1 X112.033 Y118.649 E.00953
G1 X111.797 Y118.675 E.0067
G1 X111.566 Y118.659 E.00653
G1 X111.341 Y118.604 E.00654
G1 X111.127 Y118.508 E.00662
G1 X110.938 Y118.374 E.00654
G1 X110.771 Y118.208 E.00664
G1 X110.645 Y118.003 E.00679
G1 X110.549 Y117.731 E.00814
G1 E-1.75 F1500
;WIPE_START
G1 F7200
G1 X110.533 Y117.674 E-.01172
G1 X110.521 Y117.545 E-.02564
G1 X110.577 Y117.145 E-.07994
G1 X110.633 Y116.945 E-.04111
G1 X110.724 Y116.751 E-.04241
G1 X110.846 Y116.58 E-.04157
G1 X111.122 Y116.293 E-.07881
G1 X111.235 Y116.213 E-.0274
G1 X111.449 Y116.125 E-.0458
G1 X111.744 Y116.064 E-.05962
G1 X112.02 Y116.082 E-.05474
G1 X112.247 Y116.146 E-.04668
G1 X112.457 Y116.252 E-.04656
G1 X112.641 Y116.391 E-.04564
G1 X112.8 Y116.567 E-.04694
G1 X112.915 Y116.769 E-.046
G1 X112.932 Y116.813 E-.00942
;WIPE_END
G1 X105.923 Y112.043 F9000
G1 E2.5 F2400
G1 F1200
G1 X105.976 Y111.977 E.00239
G1 X106.108 Y111.874 E.00472
G1 X106.409 Y111.757 E.00911
G1 X106.726 Y111.724 E.00899
G1 X108.346 Y111.761 E.04573
G1 X108.941 Y111.848 E.01697
G1 X109.396 Y111.989 E.01344
G1 X109.782 Y112.204 E.01247
G1 X110.097 Y112.476 E.01174
G1 X110.4 Y112.86 E.0138
G1 X110.64 Y113.316 E.01454
G1 X110.737 Y113.577 E.00786
G1 X110.843 Y113.989 E.012
G1 X110.922 Y114.631 E.01825
G1 X110.912 Y115.343 E.02009
G1 X110.816 Y115.855 E.0147
G1 X110.443 Y116.755 E.02749
G1 X110.066 Y117.367 E.02028
G1 X109.976 Y117.478 E.00403
G1 X109.699 Y117.732 E.01061
G1 X109.489 Y117.866 E.00703
G1 X109.268 Y117.971 E.0069
G1 X108.81 Y118.105 E.01347
G1 X108.379 Y118.167 E.01229
G1 X107.851 Y118.194 E.01492
G1 X107.037 Y118.186 E.02297
G1 X106.51 Y118.229 E.01492
G1 X106.284 Y118.186 E.00649
G1 X106.138 Y118.108 E.00467
G1 X106.022 Y118.002 E.00443
G1 X105.901 Y117.805 E.00652
G1 X105.828 Y117.558 E.00727
G1 X105.802 Y117.268 E.00822
G1 X105.819 Y116.664 E.01705
G1 X105.824 Y113.054 E.10187
G1 X105.786 Y112.594 E.01302
G1 X105.79 Y112.343 E.00708
G1 X105.873 Y112.107 E.00706
G1 X105.886 Y112.09 E.0006
G1 E-1.75 F1500
;WIPE_START
G1 F7200
G1 X105.923 Y112.043 E-.01184
G1 X105.976 Y111.977 E-.01675
G1 X106.108 Y111.874 E-.03314
G1 X106.409 Y111.757 E-.06392
G1 X106.726 Y111.724 E-.06308
G1 X108.346 Y111.761 E-.32071
G1 X108.941 Y111.848 E-.11901
G1 X109.396 Y111.989 E-.09428
G1 X109.516 Y112.056 E-.02727
;WIPE_END
G1 X101.607 Y113.531 F9000
G1 E2.5 F2400
G1 F1200
G1 X101.599 Y113.532 E.00023
G1 X101.377 Y113.46 E.00659
G1 X101.152 Y113.284 E.00806
G1 X100.996 Y113.066 E.00756
G1 X100.903 Y112.815 E.00755
G1 X100.895 Y112.563 E.00711
G1 X101.006 Y112.276 E.00868
G1 X101.175 Y112.077 E.00737
G1 X101.4 Y111.906 E.00797
G1 X101.691 Y111.755 E.00925
G1 X102.015 Y111.646 E.00965
G1 X102.372 Y111.582 E.01023
G1 X102.615 Y111.563 E.00688
G1 X102.994 Y111.566 E.0107
G1 X103.284 Y111.598 E.00823
G1 X103.623 Y111.671 E.00979
G1 X103.839 Y111.747 E.00646
G1 X104.117 Y111.897 E.00891
G1 X104.286 Y112.028 E.00603
G1 X104.495 Y112.253 E.00867
G1 X104.654 Y112.514 E.00862
G1 X104.76 Y112.875 E.01062
G1 X104.775 Y113.185 E.00876
G1 X104.762 Y113.443 E.00729
G1 X104.635 Y113.967 E.01521
G1 X104.563 Y114.074 E.00364
G1 X104.255 Y114.364 E.01194
G1 X103.991 Y114.51 E.00851
G1 X104.243 Y114.615 E.0077
G1 X104.621 Y114.923 E.01376
G1 X104.696 Y115.026 E.0036
G1 X104.895 Y115.52 E.01503
G1 X104.968 Y115.788 E.00784
G1 X105.019 Y116.12 E.00948
G1 X104.997 Y116.549 E.01212
G1 X104.874 Y116.991 E.01295
G1 X104.714 Y117.322 E.01037
G1 X104.436 Y117.698 E.0132
G1 X104.092 Y117.993 E.01279
G1 X103.688 Y118.208 E.01291
G1 X103.251 Y118.327 E.01278
G1 X102.863 Y118.365 E.011
G1 X102.439 Y118.359 E.01197
G1 X102.058 Y118.306 E.01085
G1 X101.742 Y118.217 E.00926
G1 X101.466 Y118.094 E.00853
G1 X101.238 Y117.933 E.00788
G1 X101.058 Y117.725 E.00776
G1 X100.949 Y117.5 E.00706
G1 X100.892 Y117.236 E.00762
G1 X100.908 Y116.969 E.00755
G1 X101 Y116.732 E.00717
G1 X101.166 Y116.546 E.00704
G1 X101.45 Y116.407 E.00892
G1 X101.798 Y116.375 E.00986
G1 X102.112 Y116.445 E.00908
G1 X102.336 Y116.568 E.00721
G1 X102.682 Y116.825 E.01216
G1 X102.814 Y116.858 E.00384
G1 X102.963 Y116.826 E.0043
G1 X103.116 Y116.736 E.00501
G1 X103.229 Y116.61 E.00478
G1 X103.298 Y116.45 E.00492
G1 X103.315 Y116.274 E.00499
G1 X103.277 Y116.095 E.00516
G1 X103.168 Y115.893 E.00648
G1 X103.044 Y115.75 E.00534
G1 X102.893 Y115.63 E.00544
G1 X102.726 Y115.545 E.00529
G1 X102.523 Y115.487 E.00596
G1 X102.106 Y115.413 E.01195
G1 X101.887 Y115.329 E.00662
G1 X101.712 Y115.184 E.00641
G1 X101.627 Y115.039 E.00474
G1 X101.58 Y114.88 E.00468
G1 X101.576 Y114.634 E.00694
G1 X101.639 Y114.381 E.00736
G1 X101.723 Y114.211 E.00535
G1 X101.892 Y114.016 E.00728
G1 X102.168 Y113.879 E.0087
G1 X102.724 Y113.769 E.01599
G1 X102.866 Y113.686 E.00464
G1 X102.948 Y113.6 E.00335
G1 X103.001 Y113.507 E.00302
G1 X103.02 Y113.427 E.00232
G1 X103.008 Y113.299 E.00363
G1 X102.973 Y113.216 E.00254
G1 X102.923 Y113.155 E.00223
G1 X102.839 Y113.105 E.00276
G1 X102.646 Y113.095 E.00545
G1 X102.453 Y113.159 E.00574
G1 X101.99 Y113.453 E.01548
G1 X101.77 Y113.527 E.00655
G1 X101.667 Y113.53 E.00291
G1 E-1.75 F1500
;WIPE_START
G1 F7200
G1 X101.607 Y113.531 E-.01188
G1 X101.599 Y113.532 E-.0016
G1 X101.377 Y113.46 E-.04619
G1 X101.152 Y113.284 E-.05654
G1 X100.996 Y113.066 E-.05305
G1 X100.903 Y112.815 E-.05298
G1 X100.895 Y112.563 E-.0499
G1 X101.006 Y112.276 E-.0609
G1 X101.175 Y112.077 E-.05167
G1 X101.4 Y111.906 E-.05593
G1 X101.691 Y111.755 E-.06489
G1 X102.015 Y111.646 E-.06766
G1 X102.372 Y111.582 E-.07178
G1 X102.615 Y111.563 E-.04824
G1 X102.902 Y111.565 E-.05679
;WIPE_END
G1 X98.563 Y113.303 F9000
G1 E2.5 F2400
G1 F1200
G1 X98.557 Y113.303 E.00017
G1 X98.536 Y113.458 E.00441
G1 X98.552 Y117.372 E.11045
G1 X98.504 Y117.642 E.00774
G1 X98.405 Y117.869 E.00699
G1 X98.236 Y118.06 E.0072
G1 X98.019 Y118.179 E.00698
G1 X97.7 Y118.222 E.00908
G1 X97.513 Y118.197 E.00532
G1 X97.346 Y118.143 E.00495
G1 X97.204 Y118.063 E.0046
G1 X97.087 Y117.95 E.00459
G1 X97.005 Y117.81 E.00458
G1 X96.961 Y117.66 E.00441
G1 X96.95 Y117.419 E.00681
G1 X96.989 Y116.925 E.01398
G1 X96.972 Y114.143 E.07851
G1 X97.007 Y113.586 E.01575
G1 X96.978 Y113.418 E.00481
G1 X96.898 Y113.336 E.00323
G1 X96.738 Y113.283 E.00476
G1 X96.465 Y113.285 E.0077
G1 X95.89 Y113.356 E.01635
G1 X95.586 Y113.315 E.00866
G1 X95.436 Y113.242 E.00471
G1 X95.304 Y113.133 E.00483
G1 X95.142 Y112.863 E.00889
G1 X95.083 Y112.529 E.00957
G1 X95.103 Y112.341 E.00534
G1 X95.188 Y112.102 E.00716
G1 X95.338 Y111.903 E.00703
G1 X95.481 Y111.797 E.00502
G1 X95.668 Y111.725 E.00565
G1 X95.86 Y111.703 E.00545
G1 X96.487 Y111.746 E.01773
G1 X99.803 Y111.735 E.09357
G1 X99.971 Y111.763 E.00481
G1 X100.171 Y111.854 E.0062
G1 X100.301 Y111.97 E.00492
G1 X100.416 Y112.177 E.00668
G1 X100.469 Y112.504 E.00935
G1 X100.422 Y112.802 E.00851
G1 X100.303 Y113.024 E.00711
G1 X100.068 Y113.205 E.00837
G1 X99.832 Y113.279 E.00698
G1 X99.49 Y113.315 E.0097
G1 X98.623 Y113.304 E.02447
G1 E-1.75 F1500
;WIPE_START
G1 F7200
G1 X98.563 Y113.303 E-.01188
G1 X98.557 Y113.303 E-.00119
G1 X98.536 Y113.458 E-.03096
G1 X98.551 Y117.025 E-.70597
;WIPE_END
G1 X94.621 Y116.72 F9000
G1 E2.5 F2400
G1 F1200
G1 X94.625 Y116.726 E.0002
G1 X94.679 Y116.952 E.00656
G1 X94.676 Y117.078 E.00356
G1 X94.597 Y117.296 E.00654
G1 X94.448 Y117.557 E.00848
G1 X94.245 Y117.797 E.00887
G1 X93.999 Y117.997 E.00895
G1 X93.715 Y118.155 E.00917
G1 X93.39 Y118.271 E.00974
G1 X93.035 Y118.34 E.01021
G1 X92.631 Y118.366 E.01142
G1 X92.196 Y118.343 E.01229
G1 X91.928 Y118.298 E.00767
G1 X91.642 Y118.219 E.00837
G1 X91.398 Y118.123 E.0074
G1 X90.969 Y117.877 E.01395
G1 X90.677 Y117.635 E.0107
G1 X90.502 Y117.449 E.00721
G1 X90.345 Y117.247 E.00722
G1 X90.145 Y116.917 E.01089
G1 X89.948 Y116.429 E.01485
G1 X89.824 Y115.85 E.01671
G1 X89.783 Y114.992 E.02424
G1 X89.804 Y114.283 E.02002
G1 X89.847 Y113.938 E.00981
G1 X89.915 Y113.619 E.0092
G1 X90.11 Y113.087 E.01599
G1 X90.306 Y112.741 E.01122
G1 X90.465 Y112.526 E.00755
G1 X90.719 Y112.256 E.01046
G1 X90.917 Y112.091 E.00727
G1 X91.23 Y111.891 E.01048
G1 X91.697 Y111.693 E.01431
G1 X92.007 Y111.615 E.00902
G1 X92.325 Y111.573 E.00905
G1 X92.604 Y111.563 E.00788
G1 X92.964 Y111.58 E.01017
G1 X93.355 Y111.649 E.0112
G1 X93.693 Y111.767 E.0101
G1 X94.077 Y111.989 E.01252
G1 X94.338 Y112.212 E.00969
G1 X94.547 Y112.489 E.00979
G1 X94.616 Y112.646 E.00484
G1 X94.653 Y112.819 E.00499
G1 X94.628 Y113.097 E.00788
G1 X94.52 Y113.34 E.0075
G1 X94.354 Y113.533 E.00718
G1 X94.202 Y113.635 E.00517
G1 X93.965 Y113.708 E.007
G1 X93.722 Y113.696 E.00687
G1 X93.471 Y113.616 E.00743
G1 X92.835 Y113.25 E.02071
G1 X92.699 Y113.199 E.0041
G1 X92.6 Y113.183 E.00283
G1 X92.349 Y113.195 E.00709
G1 X92.158 Y113.247 E.00559
G1 X91.914 Y113.373 E.00775
G1 X91.776 Y113.49 E.00511
G1 X91.62 Y113.7 E.00738
G1 X91.523 Y113.909 E.0065
G1 X91.446 Y114.171 E.00771
G1 X91.395 Y114.495 E.00926
G1 X91.372 Y114.922 E.01207
G1 X91.391 Y115.389 E.01319
G1 X91.438 Y115.724 E.00955
G1 X91.517 Y116.008 E.00832
G1 X91.621 Y116.233 E.00699
G1 X91.776 Y116.44 E.0073
G1 X91.972 Y116.592 E.007
G1 X92.225 Y116.703 E.0078
G1 X92.433 Y116.746 E.00599
G1 X92.722 Y116.745 E.00816
G1 X93.012 Y116.672 E.00844
G1 X93.097 Y116.619 E.00283
G1 X93.255 Y116.431 E.00693
